images_sukapura_svg/cmd/sc_printlayout.svg

<svg height="16" viewBox="0 0 4.2333333 4.2333335" width="16" xmlns="http://www.w3.org/2000/svg" xmlns:xlink="http://www.w3.org/1999/xlink"><linearGradient id="a" gradientUnits="userSpaceOnUse" x1="4.233334" x2="4.233334" y1="294.08957" y2="289.85623"><stop offset="0" stop-color="#4680ce"/><stop offset="1" stop-color="#5ea0ee"/></linearGradient><linearGradient id="b" gradientUnits="userSpaceOnUse" x1="4.233334" x2="4.233334" y1="293.95728" y2="294.48645"><stop offset="0" stop-color="#b0b0b0"/><stop offset=".49999985" stop-color="#cecece"/><stop offset=".75000322" stop-color="#f4f4f4"/><stop offset=".75000322" stop-color="#e5e5e5"/><stop offset="1" stop-color="#fff"/></linearGradient><radialGradient id="c" cx="10.994179" cy="4.42844" gradientTransform="matrix(1.4 .00000004 -.00000001 1.2 -4.39185 -2.314129)" gradientUnits="userSpaceOnUse" r="5"><stop offset="0" stop-color="#d7d7d7"/><stop offset=".49894297" stop-color="#f7f7f7"/><stop offset="1" stop-color="#fff"/></radialGradient><linearGradient id="d" gradientUnits="userSpaceOnUse" x1="10" x2="11.500001" y1="4" y2="2.499999"><stop offset="0" stop-color="#fff"/><stop offset=".77967989" stop-color="#f1f1f1"/><stop offset="1" stop-color="#d5d5d5"/></linearGradient><g transform="translate(-2.116667 -290.517694)"><path d="m2.116667 290.5177h4.233334v3.174994h-4.233334z" fill="#2c2c2c"/><path d="m2.645834 291.04688h3.175v2.116652h-3.175z" fill="url(#a)"/><path d="m3.5718752 293.82499v.39687l-.5291671.13229.0000006.26457 2.3812498.00002-.0000004-.26459-.5291662-.13229v-.39687z" fill="url(#b)" stroke="#959595" stroke-width=".264583"/></g><g transform="matrix(.26458333 0 0 .26458333 .529167 .79375)"><path d="m5.9999997 1 .0000004 11h6.9999999v-8.2949219l-2.695312-2.7050781z" fill="url(#c)"/><path d="m5.9999997 0c-.554 0-1 .446-1 1l.0000004 11c0 .554.446 1 1 1h6.9999999c.554 0 1-.446 1-1v-7.5-.8632812l-3.636719-3.6367188h-.863281zm0 1h3.0000003v3.5c0 .277.223.5.5.5h3.5v7h-6.9999999zm4.0000003 0 3 3h-3z" fill="#98989d"/><path d="m10 1 3 3h-3z" fill="url(#d)"/></g></svg>

<?xml version="1.0" encoding="UTF-8" standalone="no"?>
<!-- Created with Inkscape (http://www.inkscape.org/) -->

<svg
   xmlns:dc="http://purl.org/dc/elements/1.1/"
   xmlns:cc="http://creativecommons.org/ns#"
   xmlns:rdf="http://www.w3.org/1999/02/22-rdf-syntax-ns#"
   xmlns:svg="http://www.w3.org/2000/svg"
   xmlns="http://www.w3.org/2000/svg"
   xmlns:xlink="http://www.w3.org/1999/xlink"
   xmlns:sodipodi="http://sodipodi.sourceforge.net/DTD/sodipodi-0.dtd"
   xmlns:inkscape="http://www.inkscape.org/namespaces/inkscape"
   width="16"
   height="16"
   viewBox="0 0 4.2333333 4.2333335"
   version="1.1"
   id="svg922"
   sodipodi:docname="sc_printlayout.svg"
   inkscape:export-filename="/home/rizmut/Dokumen/Rizmut/Github/libreoffice-style-sukapura/images_sukapura/cmd/lc_printlayout.png"
   inkscape:export-xdpi="96"
   inkscape:export-ydpi="96"
   inkscape:version="0.92.3 (unknown)">
  <defs
     id="defs916">
    <linearGradient
       inkscape:collect="always"
       xlink:href="#linearGradient844"
       id="linearGradient846"
       x1="4.2333336"
       y1="294.08957"
       x2="4.2333336"
       y2="289.85623"
       gradientUnits="userSpaceOnUse" />
    <linearGradient
       inkscape:collect="always"
       id="linearGradient844">
      <stop
         style="stop-color:#4680ce;stop-opacity:1;"
         offset="0"
         id="stop840" />
      <stop
         style="stop-color:#5ea0ee;stop-opacity:1"
         offset="1"
         id="stop842" />
    </linearGradient>
    <linearGradient
       inkscape:collect="always"
       xlink:href="#linearGradient852"
       id="linearGradient854"
       x1="4.2333336"
       y1="293.95728"
       x2="4.2333336"
       y2="294.48645"
       gradientUnits="userSpaceOnUse" />
    <linearGradient
       inkscape:collect="always"
       id="linearGradient852">
      <stop
         style="stop-color:#b0b0b0;stop-opacity:1;"
         offset="0"
         id="stop848" />
      <stop
         id="stop860"
         offset="0.49999985"
         style="stop-color:#cecece;stop-opacity:1" />
      <stop
         id="stop856"
         offset="0.75000322"
         style="stop-color:#f4f4f4;stop-opacity:1" />
      <stop
         style="stop-color:#e5e5e5;stop-opacity:1"
         offset="0.75000322"
         id="stop858" />
      <stop
         style="stop-color:#ffffff;stop-opacity:1"
         offset="1"
         id="stop850" />
    </linearGradient>
    <radialGradient
       id="b"
       cx="10.994179"
       cy="4.4284401"
       gradientTransform="matrix(1.4,4e-8,-1e-8,1.2,-4.39185,-2.314129)"
       gradientUnits="userSpaceOnUse"
       r="5">
      <stop
         offset="0"
         stop-color="#d7d7d7"
         id="stop9" />
      <stop
         offset=".49894297"
         stop-color="#f7f7f7"
         id="stop11" />
      <stop
         offset="1"
         stop-color="#fff"
         id="stop13" />
    </radialGradient>
    <linearGradient
       id="a"
       gradientUnits="userSpaceOnUse"
       x1="10"
       x2="11.500001"
       y1="4"
       y2="2.4999993">
      <stop
         offset="0"
         stop-color="#fff"
         id="stop2" />
      <stop
         offset=".77967989"
         stop-color="#f1f1f1"
         id="stop4" />
      <stop
         offset="1"
         stop-color="#d5d5d5"
         id="stop6" />
    </linearGradient>
  </defs>
  <sodipodi:namedview
     id="base"
     pagecolor="#ffffff"
     bordercolor="#666666"
     borderopacity="1.0"
     inkscape:pageopacity="0.0"
     inkscape:pageshadow="2"
     inkscape:zoom="19.916667"
     inkscape:cx="17.448953"
     inkscape:cy="8.4025153"
     inkscape:document-units="mm"
     inkscape:current-layer="layer1"
     showgrid="true"
     units="px"
     inkscape:window-width="1366"
     inkscape:window-height="699"
     inkscape:window-x="0"
     inkscape:window-y="0"
     inkscape:window-maximized="1">
    <inkscape:grid
       type="xygrid"
       id="grid1467"
       spacingx="0.13229167"
       spacingy="0.13229167"
       empspacing="2" />
  </sodipodi:namedview>
  <metadata
     id="metadata919">
    <rdf:RDF>
      <cc:Work
         rdf:about="">
        <dc:format>image/svg+xml</dc:format>
        <dc:type
           rdf:resource="http://purl.org/dc/dcmitype/StillImage" />
        <dc:title></dc:title>
      </cc:Work>
    </rdf:RDF>
  </metadata>
  <g
     inkscape:label="Layer 1"
     inkscape:groupmode="layer"
     id="layer1"
     transform="translate(0,-292.76664)">
    <g
       transform="translate(-2.1166668,2.2489457)"
       id="g865">
      <rect
         y="290.5177"
         x="2.1166668"
         height="3.174994"
         width="4.2333336"
         id="rect834"
         style="opacity:1;fill:#2c2c2c;fill-opacity:1;stroke:none;stroke-width:0.26458332;stroke-linecap:round;stroke-linejoin:round;stroke-miterlimit:4;stroke-dasharray:none;stroke-opacity:0" />
      <rect
         y="291.04688"
         x="2.6458335"
         height="2.1166523"
         width="3.1749997"
         id="rect836"
         style="opacity:1;fill:url(#linearGradient846);fill-opacity:1;stroke:none;stroke-width:0.26458332;stroke-linecap:round;stroke-linejoin:round;stroke-miterlimit:4;stroke-dasharray:none;stroke-opacity:0" />
      <path
         sodipodi:nodetypes="ccccccccc"
         inkscape:connector-curvature="0"
         id="path838"
         d="m 3.5718752,293.82499 0,0.39687 -0.5291671,0.13229 6e-7,0.26457 2.3812498,2e-5 -4e-7,-0.26459 -0.5291662,-0.13229 0,-0.39687 z"
         style="fill:url(#linearGradient854);fill-opacity:1;stroke:#959595;stroke-width:0.26458332px;stroke-linecap:butt;stroke-linejoin:miter;stroke-opacity:1" />
    </g>
    <g
       transform="matrix(0.26458333,0,0,0.26458333,0.52916671,293.56039)"
       id="g838">
      <path
         style="fill:url(#b)"
         inkscape:connector-curvature="0"
         id="path16"
         d="m 5.9999997,1 4e-7,11 H 13 V 3.7050781 L 10.304688,1 Z"
         sodipodi:nodetypes="cccccc" />
      <path
         style="fill:#98989d"
         inkscape:connector-curvature="0"
         id="path18"
         d="m 5.9999997,0 c -0.554,0 -1,0.446 -1,1 l 4e-7,11 c 0,0.554 0.446,1 1,1 H 13 c 0.554,0 1,-0.446 1,-1 V 4.5 3.6367188 L 10.363281,0 H 9.5 Z m 0,1 H 9 V 4.5 C 9,4.777 9.223,5 9.5,5 H 13 v 7 H 6.0000001 Z M 10,1 13,4 h -3 z"
         sodipodi:nodetypes="ssssssccccsccsscccccccc" />
      <path
         style="fill:url(#a)"
         inkscape:connector-curvature="0"
         id="path20"
         d="m 10,1 3,3 h -3 z" />
    </g>
  </g>
</svg>
